X: 1
T: I Was Not ... Since Martinmas
R: reel
M: 4/4
L: 1/8
K: Cmaj
G2g2 d2cB|A2F2 D2A2|G2g2 d2cB|deG2 D2A2|G2g2 d2cB|
A2F2 D2A2|G2g2 d2ef|gfed edcB|c2e2 d2cB|A2F2 F2A2|
a2b2 g2g2|fedg G2G2|a2b2 g2g2|fedg fede|dcB c2e2 d|
cBA2 F2DA||Bcd2 BcdB|gfed G2G2|Bcd2 Bcdf|egf F2F3|
Bcd2 BcdB|dgdB ged2|cBcd edBc|dBA F3D2|

